X:157
T:Reel 157
M:4/4
K:Gmaj
L:1/8
d>A (3BAG e>G (3GAG |Bded B2B2||e>f (3efg d>g (3gag |eaab a2ga:||2 (3efg dg  (3gfg g2|e>A (3AGA B>G (3gfg |:a>a (3aga g2g2|e>A (3AAA e2G2|A>G (3AGA g2G2|e>A (3AAA e2g2|a>g (3efg g2g2| (3efe d2 efd2|eaa2 g2fd| (3efg dB AGE2:|
